X:1
T:Jag Har En Vän, 11.10.11.10
T:Swedish Folk Melody
T:Jag Har En Vän, 11.10.11.10
T:Public Domain
C:Swedish Folk Melody
Z:Public Domain
%%score ( 1 2 ) ( 3 4 )
L:1/8
M:4/4
K:A
V:1 treble 
V:2 treble 
V:3 bass 
V:4 bass 
V:1
 [CE][CE]>[CA] | [CA]3 [CA] [CA]>[CA] [Ec]>[EA] | [EA]2 [EG]2 z [EA] [EG]>[DF] | %3
 [CE]3 [B,D] [A,C]>[B,D] [CE]>[B,D] | [A,C]4 z [CE] [EA]>[EB] | [Ec]3 [EA] [FA]>[DF] [DF]>D | %6
 D2 [Dd]2 z [Fd] [Fc]>[FB] | [EB]3 [EA] [EG]>E [DF]>[DG] | [CA]4 z |] %9
V:2
 x3 | x8 | x8 | x8 | x8 | x15/2 D/ | D2 x6 | x11/2 E/ x2 | x5 |] %9
V:3
 [A,,A,][A,,A,]>[A,,E,] | [A,,E,]3 [A,,E,] [A,,E,]>[A,,A,] [A,,A,]>[C,A,] | %2
 [E,C]2 [E,B,]2 z [C,A,] [D,A,]>[D,A,] | [E,A,]3 [E,G,] [E,A,]>[E,_F,] [E,G,]>E, | %4
 [A,,E,]4 z [A,,A,] [C,A,]>[E,G,] | A,3 [C,A,] [D,A,]>[D,A,] [D,A,]>[D,F,] | %6
 [B,,F,]2 [B,,B,]2 z [B,,B,] [C,^A,]>[D,B,] | [E,C]3 [E,C] [E,B,]>[E,G,] [E,A,]>[E,B,] | %8
 [A,,A,]4 z |] %9
V:4
 x3 | x8 | x8 | x15/2 E,/ | x8 | A,3 x5 | x8 | x8 | x5 |] %9

